X:147
T: WOHL IST DER HERBST EIN EHRENMANN
N: F0276
O: Europa, Mitteleuropa, Deutschland
R: Jugend - Lied, Jahreszeiten, Herbst
M: 2/4
L: 1/16
K: C
C | G,3E,G,3E, | F,2D,2E,2z
^F, | G,A,B,CD2B,G, | A,3B,G,2z
D | D3B,D3B, | C2A,2B,2z
D | D3B,DGDB, | C2A,2B,2z
G, | CDEFG2EC | D3EC2z

